storage/app/icons/phosphoricons/regular/square-logo.svg

<svg xmlns="http://www.w3.org/2000/svg" fill="currentColor" viewBox="0 0 256 256"><path d="M208 32H48a16 16 0 0 0-16 16v160a16 16 0 0 0 16 16h160a16 16 0 0 0 16-16V48a16 16 0 0 0-16-16m0 176H48V48h160zM160 88H96a8 8 0 0 0-8 8v64a8 8 0 0 0 8 8h64a8 8 0 0 0 8-8V96a8 8 0 0 0-8-8m-8 64h-48v-48h48Z"/></svg>

<svg xmlns="http://www.w3.org/2000/svg" viewBox="0 0 256 256" fill="currentColor"><path d="M208,32H48A16,16,0,0,0,32,48V208a16,16,0,0,0,16,16H208a16,16,0,0,0,16-16V48A16,16,0,0,0,208,32Zm0,176H48V48H208V208ZM160,88H96a8,8,0,0,0-8,8v64a8,8,0,0,0,8,8h64a8,8,0,0,0,8-8V96A8,8,0,0,0,160,88Zm-8,64H104V104h48Z"/></svg>
